packages/foundations/assets/icons/functional/images/business & payment/discount_12.svg

<svg width="12" height="12" viewBox="0 0 12 12" fill="none" xmlns="http://www.w3.org/2000/svg">
<g clip-path="url(#clip0_231_120)">
<path fill-rule="evenodd" clip-rule="evenodd" d="M6.02395 1.03445C6.20541 1.03228 6.38499 1.07128 6.54919 1.14853C6.7134 1.22579 6.85794 1.33927 6.97195 1.48045L7.32795 1.91945L7.90095 1.78445C8.07811 1.74126 8.26259 1.73744 8.44138 1.77327C8.62017 1.8091 8.78894 1.8837 8.93577 1.99182C9.0826 2.09995 9.20394 2.23896 9.29122 2.39906C9.37851 2.55916 9.42962 2.73646 9.44095 2.91845L9.47195 3.47845L10.011 3.70345C10.481 3.89946 10.8 4.35545 10.8 4.86746C10.8 5.09945 10.728 5.33045 10.593 5.53645L10.288 6.00045L10.592 6.50245C10.716 6.70645 10.788 6.93846 10.788 7.18246C10.788 7.68246 10.472 8.14646 9.99695 8.32446L9.47195 8.52246L9.42395 9.10845C9.37395 9.71546 8.87495 10.2645 8.18095 10.2645C8.07095 10.2645 7.96095 10.2535 7.86495 10.2275L7.32795 10.0815L6.94295 10.5245C6.67695 10.8325 6.39595 10.9545 5.97595 10.9665C5.7945 10.9686 5.61491 10.9296 5.45071 10.8524C5.2865 10.7751 5.14196 10.6616 5.02795 10.5205L4.67195 10.0815L4.09895 10.2165C3.92179 10.2597 3.73732 10.2635 3.55852 10.2276C3.37973 10.1918 3.21097 10.1172 3.06413 10.0091C2.9173 9.90096 2.79596 9.76195 2.70868 9.60185C2.62139 9.44175 2.57028 9.26445 2.55895 9.08245L2.52795 8.52246L1.98795 8.29945C1.75607 8.20824 1.55695 8.04945 1.41644 7.84367C1.27592 7.63789 1.2005 7.39463 1.19995 7.14545C1.19995 6.90145 1.27195 6.67045 1.40695 6.46446L1.71195 6.00045L1.40395 5.48845C1.30552 5.33444 1.24264 5.16042 1.21991 4.97906C1.19717 4.7977 1.21514 4.61354 1.27251 4.44C1.32988 4.26645 1.42521 4.10787 1.55156 3.97579C1.67791 3.84371 1.83212 3.74145 2.00295 3.67646L2.52795 3.47845L2.58795 2.89345C2.61295 2.23645 3.17395 1.73645 3.81895 1.73645C3.92895 1.73645 4.03895 1.74745 4.13495 1.77345L4.67195 1.91945L5.05395 1.47345C5.31395 1.17045 5.60395 1.04745 6.02395 1.03345V1.03445ZM6.01195 2.22445L5.63795 2.67745C5.48618 2.86175 5.28406 2.99789 5.05624 3.06927C4.82842 3.14065 4.58475 3.14419 4.35495 3.07945L3.81895 2.92945L3.78295 2.95445L3.74895 3.51445C3.71895 4.00245 3.41695 4.42845 2.95495 4.59945L2.42995 4.79446L2.41795 4.84345L2.72295 5.31945C2.84595 5.51245 2.91795 5.74445 2.91795 5.97645C2.91795 6.21945 2.84495 6.45146 2.70995 6.65646L2.40595 7.12145L2.41795 7.17045L2.94295 7.37445C3.39195 7.55046 3.71095 7.97445 3.73295 8.46045L3.75795 9.02145L3.79495 9.04645L4.32995 8.90845C4.56055 8.84381 4.80512 8.84881 5.03288 8.92284C5.26064 8.99686 5.46142 9.13659 5.60995 9.32446L5.96295 9.76445H6.01295L6.36495 9.32446C6.4782 9.18446 6.62126 9.07151 6.78371 8.99383C6.94615 8.91615 7.12389 8.87571 7.30395 8.87545C7.41395 8.87545 7.53395 8.89045 7.64495 8.92145L8.18095 9.07146L8.21695 9.04645L8.25095 8.48645C8.28095 7.99846 8.58295 7.57245 9.04495 7.40145L9.56995 7.20645L9.58195 7.15745L9.27695 6.68146C9.15132 6.48521 9.08372 6.25746 9.08195 6.02446C9.08195 5.78146 9.15495 5.54945 9.28995 5.34445L9.59395 4.87946L9.58195 4.83045L9.05695 4.62645C8.83461 4.54084 8.64175 4.39278 8.50159 4.20011C8.36143 4.00743 8.27995 3.77836 8.26695 3.54045L8.24195 2.97945L8.20495 2.95445L7.66795 3.10045C7.43669 3.15837 7.19368 3.14895 6.9676 3.07329C6.74151 2.99764 6.54178 2.8589 6.39195 2.67345L6.03695 2.23645C6.03695 2.22345 6.02395 2.22445 6.01195 2.22445ZM4.19695 4.80545C4.19616 4.72627 4.21098 4.6477 4.24056 4.57424C4.27013 4.50078 4.31389 4.43386 4.36932 4.37731C4.42476 4.32076 4.49079 4.27568 4.56365 4.24465C4.63651 4.21362 4.71476 4.19724 4.79395 4.19646C4.87314 4.19567 4.9517 4.21048 5.02517 4.24006C5.09863 4.26963 5.16554 4.31339 5.22209 4.36883C5.27864 4.42426 5.32372 4.4903 5.35475 4.56315C5.38579 4.63601 5.40216 4.71427 5.40295 4.79346C5.40454 4.95338 5.34254 5.10739 5.23058 5.2216C5.11862 5.33581 4.96588 5.40086 4.80595 5.40245C4.64603 5.40405 4.49202 5.34204 4.37781 5.23008C4.2636 5.11812 4.19854 4.96538 4.19695 4.80545ZM4.25695 6.90045L6.90095 4.24545L7.75395 5.09845L5.09995 7.74246L4.25895 6.90245L4.25695 6.90045ZM6.59695 7.19345C6.59695 6.86445 6.86495 6.59646 7.19395 6.59646C7.31372 6.59527 7.43112 6.62978 7.5312 6.69558C7.63127 6.76137 7.70949 6.85549 7.75587 6.96591C7.80225 7.07634 7.8147 7.19807 7.79162 7.3156C7.76855 7.43313 7.711 7.54112 7.62631 7.62581C7.54162 7.7105 7.43362 7.76805 7.3161 7.79113C7.19857 7.8142 7.07683 7.80176 6.96641 7.75538C6.85598 7.70899 6.76187 7.63078 6.69607 7.5307C6.63027 7.43062 6.59577 7.31322 6.59695 7.19345Z" fill="#1A1C1F"/>
</g>
<defs>
<clipPath id="clip0_231_120">
<rect width="12" height="12" fill="white"/>
</clipPath>
</defs>
</svg>

<svg xmlns="http://www.w3.org/2000/svg" width="12" height="12" fill="none"><g clip-path="url(#a)"><path fill="#1A1C1F" fill-rule="evenodd" d="M6.024 1.034a1.2 1.2 0 0 1 .948.446l.356.44.573-.136a1.247 1.247 0 0 1 1.54 1.134l.03.56.54.225c.47.196.789.652.789 1.164 0 .232-.072.463-.207.67L10.288 6l.304.502c.124.204.196.436.196.68 0 .5-.316.964-.791 1.142l-.525.198-.048.586c-.05.607-.549 1.156-1.243 1.156-.11 0-.22-.01-.316-.037l-.537-.146-.385.444c-.266.307-.547.43-.967.441a1.2 1.2 0 0 1-.948-.445l-.356-.44-.573.136a1.246 1.246 0 0 1-1.54-1.135l-.031-.56-.54-.223A1.24 1.24 0 0 1 1.2 7.145c0-.244.072-.475.207-.68L1.712 6l-.308-.512a1.23 1.23 0 0 1 .599-1.812l.525-.198.06-.585c.025-.657.586-1.157 1.231-1.157.11 0 .22.011.316.037l.537.146.382-.446c.26-.303.55-.426.97-.44zm-.012 1.19-.374.453a1.23 1.23 0 0 1-1.283.402l-.536-.15-.036.025-.034.56c-.03.488-.332.914-.794 1.085l-.525.195-.012.05.305.475c.123.193.195.425.195.657 0 .243-.073.475-.208.68l-.304.465.012.05.525.203c.449.176.768.6.79 1.086l.025.561.037.025.535-.138a1.21 1.21 0 0 1 1.28.416l.353.44h.05l.352-.44a1.21 1.21 0 0 1 1.28-.403l.536.15.036-.025.034-.56c.03-.488.332-.914.794-1.085l.525-.195.012-.049-.305-.476a1.24 1.24 0 0 1-.195-.657c0-.243.073-.475.208-.68l.304-.465-.012-.049-.525-.204a1.24 1.24 0 0 1-.79-1.086l-.025-.56-.037-.026-.537.146a1.25 1.25 0 0 1-1.276-.427l-.355-.437c0-.013-.013-.012-.025-.012M4.197 4.805a.603.603 0 1 1 1.206-.012.603.603 0 0 1-1.206.012m.06 2.095L6.9 4.245l.853.853L5.1 7.742l-.841-.84zm2.34.293a.603.603 0 1 1 1.206.012.603.603 0 0 1-1.206-.012" clip-rule="evenodd"/></g><defs><clipPath id="a"><path fill="#fff" d="M0 0h12v12H0z"/></clipPath></defs></svg>
